!!!!SEGMENT: pl-wn--sd-xvi-qu-273--059_gomolka-mikolaj--boze-ktory-slug-nigdy-nie-przepomnisz-swoich.krn
!!!cenid: 15xx:264
!!!COM: Gomółka, Mikołaj
!!!COM-rismid: pe30013343
!!!CDT: ~1535->1591/04/30
!!!CNT: Polish
!!!GTL: Melodiae na psalterz polski
!!!OTL: LIX. Boże, który sług nigdy nie przepomnisz swoich,
!!!ONB: PSALMUS LIX. Eripe me de inimicis meis Deus meus: et ab insurgentibus in me libera me.
!!!PDT: 1580
!!!AGN: Sacred
!!!SMS-siglum: PL-Wn
!!!SMS-shelfmark: SD XVI.Qu.273
!!!SMS-shelfwork: 059 G
!!!NIFC-rismid:
!!!ONB-nifc: Melodiae na psalterz polski
**kern	**text	**kern	**text	**kern	**text	**kern	**text
*part4	*part4	*part3	*part3	*part2	*part2	*part1	*part1
*staff4	*staff4	*staff3	*staff3	*staff2	*staff2	*staff1	*staff1
*clefF4	*	*clefC4	*	*clefC3	*	*clefC1	*
*k[b-]	*	*k[b-]	*	*k[b-]	*	*k[b-]	*
*G:	*	*G:	*	*G:	*	*G:	*
*M2/1	*	*M2/1	*	*M2/1	*	*M2/1	*
*met(C|)	*	*met(C|)	*	*met(C|)	*	*met(C|)	*
*I"BASSUS.	*	*I"TENOR.	*	*I"ALTUS.	*	*I"CANTUS.	*
=1-	=1	=1-	=1	=1-	=1	=1-	=1
0G\	BO-	0B\	BO-	0d\	BO-	0g\	BO-
=2-	=2	=2-	=2	=2-	=2	=2-	=2
1C/	-że,	1c\	-że,	1e-\	-że,	1g\	-że,
1.G\	któ-	1.d\	któ-	1.B-/	któ-	1.b-\	któ-
=3-	=3	=3-	=3	=3-	=3	=3-	=3
.	.	.	.	.	.	.	.
!LO:SIC:s=2E-:v	!	!	!	!	!	!	!
2E\	-ry	2e-\	-ry	2G/	-ry	2b-\	-ry
1C/	sług	1e-\	sług	1G/	sług	1cc\	sług
=4-	=4	=4-	=4	=4-	=4	=4-	=4
1FF/	ni-	1c\	ni-	2F/	ni-	1a\	ni-
.	.	.	.	1f\	-gdy	.	.
2FF/	-gdy	2c\	-gdy	.	.	2a\	-gdy
2BB-/	nie-	2d\	nie-	2f\	nie-	2b-\	nie-
=5-	=5	=5-	=5	=5-	=5	=5-	=5
!	!	!	!	!LO:SIC:s=2.e-:v	!	!	!
1C/	-prze-	1c\	-prze-	2.eny\	-prze-	1g\	-prze-
.	.	.	.	4d\	.	.	.
2C/	-po-	2G/	-po-	4c/	-po-	2g/	-po-
.	.	.	.	4B-/	.	.	.
2C/	-mnisz	2G/	-mnisz	2c/	-mnisz	2g/	-mnisz
=6-	=6	=6-	=6	=6-	=6	=6-	=6
1FF/	swo-	1A\	swo-	1c\	swo-	1f/	swo-
1C/	-ich,	1G/	-ich,	1c\	-ich,	1e/	-ich,
=7-	=7	=7-	=7	=7-	=7	=7-	=7
!	!	!	!	!LO:SIC:s=2e-:v	!	!	!
1C/	Wy-	2.c\	Wy-	2.e\	Wy-	1g\	Wy-
.	.	4d\	.	4f\	.	.	.
!	!	!LO:SIC:s=2e-:v	!	!LO:SIC:s=2g:v	!	!	!
4C/	-rwi	2eny\	.	2g-\	.	1cc\	-rwi
4D/	.	.	.	.	.	.	.
!LO:SIC:s=4E-:v	!	!LO:SIC:s=2e-:v	!	!	!	!	!
4E\	.	2e\	-rwi	2gny\	-rwi	.	.
4F\	.	.	.	.	.	.	.
=8-	=8	=8-	=8	=8-	=8	=8-	=8
!!LO:PB:g=original
2G\	mię	2d\	mię	2g\	mię	2b\	mię
2C/	z rąk	2c\	z rąk	2g\	z rąk	2cc\	z rąk
2F\	o-	2c\	o-	2f\	o-	2a\	o-
2BB-/	-kr(u-	2d\	-kru-	2f\	-kru-	2b-y\	-kru-
=9-	=9	=9-	=9	=9-	=9	=9-	=9
2C/	-tnych)	4c\	-tnych	2e-\	-tnych	2g/	-t(nych)
.	.	4B-y\	.	.	.	.	.
1D\	nie-	1A\	nie-	1d\	nie-	1f#/	nie-
2D/	-przy-	2A/	-przy-	2d\	-przy-	2f#/	-przy-
=10-	=10	=10-	=10	=10-	=10	=10-	=10
1GG/	-ia-	2.B-\	-ia-	1d\	-ia-	2.g/	-ia
.	.	4c\	.	.	.	4a\	.
4GG/	-ćiół	2d\	-ćiół	2g\	-ćiół	2b-\	-cioł
4AA/	.	.	.	.	.	.	.
4BB-/	mo-	2d\	mo-	2g\	mo-	2b-\	mo-
4C/	.	.	.	.	.	.	.
=11-	=11	=11-	=11	=11-	=11	=11-	=11
2D/	-ich:	2d\	-ich,	2f#\	-ich,	2a\	-(ich,)
2E-\	Broń	2B-\	Br(oń)	2g\	Br(oń)	2g/	Br(oń)
!	!	!	!	!	!	!LO:SIC:s=1ee-:v	!
4C/	mie	1c\	m(ię)	1g\	m(ię)	1ee\	mię
4D/	.	.	.	.	.	.	.
!LO:SIC:s=4E-:v	!	!	!	!	!	!	!
4Eny\	prze-	.	.	.	.	.	.
4F\	.	.	.	.	.	.	.
=12-	=12	=12-	=12	=12-	=12	=12-	=12
2G\	-ciw:	2B\	prze-	2g\	prze-	2.dd\	prze-
2G\	zu-	2d\	-(ciw)	2g\	-(ciw)	.	.
.	.	.	.	.	.	4cc\	-(ciw)
2GG/	-chwá(l-	2d\	zu-	2g\	zu-	2b-\	zu-
2GG/	-com)	2d\	-ch(wál-	2g\	-chwál-	2b\	-chwál-
=13-	=13	=13-	=13	=13-	=13	=13-	=13
!	!	!LO:SIC:s=2.e-:v	!	!	!	!	!
2C/	y	2.e\	-com)	2.g\	-(com)	2.cc\	-(com)
2C/	iá-	.	.	.	.	.	.
.	.	4d\	y	4fny\	y	4b-y\	y
2D/	.	4c\	iá-	4f\	iá-	2a\	iá-
!	!	!	!	!LO:SIC:s=4e-:v	!	!	!
.	.	4B-y\	.	4eny\	.	.	.
!LO:SIC:s=2E-:v	!	!	!	!	!	!	!
2E\	-wno-	4A/	-wno-	4d\	-wno-	2g/	-wno-
.	.	4G/	.	4c\	.	.	.
=14-	=14	=14-	=14	=14-	=14	=14-	=14
!!LO:PB:g=original
1D\	-grze-	1A\	-grze-	1d\	-grze-	2g/	-grze-
.	.	.	.	.	.	2fny/	-szni-
2GG/	-szni-	2G/	-sz(ni-	2d\	-szni-	2g/	-(kom.)
2G\	-(kom.)	2B-\	-kom.)	2d\	-(kom.)	2.g/	A-
=15-	=15	=15-	=15	=15-	=15	=15-	=15
!	!	!LO:SIC:s=2e-:v	!	!	!	!	!
2C/	A-	2e\	A-	2g\	A-	.	.
.	.	.	.	.	.	2cc\	-ni
2F\	-ni	2c\	-ni	2f\	-ni	.	.
.	.	.	.	.	.	2a\	mię
2BB-/	m(ię)	2d\	mię	2f\	mię	.	.
.	.	.	.	.	.	2b-\	w moc
!LO:SIC:s=2E-:v	!	!	!	!	!	!	!
2E\	w m(oc)	2B-\	w m(oc)	2e-\	w m(oc)	.	.
.	.	.	.	.	.	2g/	po-
=16-	=16	=16-	=16	=16-	=16	=16-	=16
2C/	po-	2c\	po-	2e-\	po-	.	.
.	.	.	.	.	.	2a\	-da-
2D/	-(da-	2A/	-da-	2d\	-da-	.	.
.	.	.	.	.	.	4f/	-way
1GG/	-way)	1B-\	-way	1d\	-way	1b-\	be-
=17-	=17	=17-	=17	=17-	=17	=17-	=17
1.FF/	be-	1.c\	be-	1.f\	be-	1.a\	-ze-
2BB-/	-ze-	2B-\	-ze-	2d\	-ze-	2f/	-cnym
=18-	=18	=18-	=18	=18-	=18	=18-	=18
2.C/	-cnym	2G/	-cnym	1c\	-cnym	2.e/	głó-
.	.	2.G/	głó-	.	.	.	.
4D\	głó-	.	.	.	.	4f/	-wni-
!	!	!	!	!LO:SIC:s=2Bn?:v	!	!	!
4E\	-wni-	.	.	2B-/	głó-	1g\	-kom.
4F\	.	4A/	-wni-	.	.	.	.
2G\	-kom.	2BnX\	-kom.	2G/	-wni-	.	.
=19-	=19	=19-	=19	=19-	=19	=19-	=19
!	!	!	!	!LO:SIC:s=1e-:v	!	!	!
1C/	.	1c\	.	1eny\	.	000g\	.
000GG/	.	000BnX\	.	000d\	-kom.	.	.
.	.	.	.	.	.	1ryy	.
==	==	==	==	==	==	==	==
*-	*-	*-	*-	*-	*-	*-	*-
!!!RDF**kern: l = terminal long
!!!system-decoration: s1,s2,s3,s4
!!!ENC: Marta Lawrence
!!!END: 2020-02-12
!!!URL-scan: https://polona.pl/item/melodiae-na-psalterz-polski,Nzk3MTM4ODQ/148 Scan on Polona
!!!IIIF: https://polona.pl/iiif/item/Nzk3MTM4ODQ/manifest.json
